X:1
T:Title
%%score { 1 | 2 }
L:1/8
Q:1/4=100
M:6/8
K:F
V:1 treble nm="Grand Piano"
V:2 bass 
V:1
 A2 A A2 A | [Ac]2 [Ac] [FA]3 | [EG]2 [FA] [GB]2 [FA] | [EG]6 | A2 A A2 A | [Ac]2 [Ac] [CFA]3 | %6
w: Paul~L.~Winsett * * *||||||
 [B,DG]2 [DGB] [CFA]2 [B,EG] | [A,F]6 | [Fd]2 [Fd] [Fd]2 [Ff] | c2 c A3 | [EB]2 [FA] [EG]2 [EG] | %11
w: |||||
 A2 B c3 | d2 d [Fd]2 [Ff] | c2 c A3 | [B,DG]2 [DGB] [CFA]2 [B,EG] |[M:7/4] [A,F]6 z2 z2 z4 |] %16
w: |||||
V:2
 [F,CF]2 [F,CF] [F,CF]2 [F,CF] | [F,F]2 [F,F] [F,C]3 | [C,C]2 [C,C] [C,C]2 [C,C] | [C,C]6 | %4
 [F,CF]2 [F,CF] [F,CF]2 [F,CF] | [F,F]2 [F,F] F,3 | B,,2 B,, C,2 C, | F,6 | %8
 [B,,B,]2 [B,,B,] [B,,B,]2 [D,B,] | [F,A,F]2 [F,A,F] [F,CF]3 | [C,C]2 [C,C] [C,C]2 [C,C] | %11
 [F,CF]2 [G,CE] [A,CF]3 | [B,F]2 [B,F][K:bass] [B,,B,]2 [D,B,] | [F,A,F]2 [F,A,F] [F,CF]3 | %14
 B,,2 B,, C,2 C, |[M:7/4] F,6 z2 z2 z4 |] %16

